X:0664
T:Because I was a bonny Lad.
M:C|
L:1/8
Q:1/2=100
I: || ||
Z:Jack Campin * www.campin.me.uk * 2009
K:A
e| Tc>BAa   (f/g/a) ec |d>fec B/B/B (Be)  | cBAa    f/g/a ec | d>fec        A/A/A Ae|
  (Tc>BAa) (3faf  (3efe|d>fec B/B/B (Be)  | cBAa  (3faf (3efe| d>fec        A/A/A A||
e|(Tc>BAc)   defd      |cAec  B/B/B  Be   |(Tc>BAc) defg     |(a/g/f/e/) ac A/A/A Ae|
    cAeA     fAea      |cAec  B/B/B  Bf/g/| afge    fdec     | dfec         A/A/A A|]
<end>
<start>
